assets/dude/Design–Loretta.svg

<svg width="476" height="108" viewBox="0 0 476 108" fill="none" xmlns="http://www.w3.org/2000/svg">
<path d="M45.3237 1.49999C28.2437 1.49999 26.5637 6.53999 25.3037 6.53999C25.1637 6.53999 25.0237 6.39999 25.0237 6.25999C25.0237 6.11999 25.1637 5.69999 25.1637 5.41999C25.1637 3.73999 23.9037 2.47999 22.2237 2.47999C20.5437 2.47999 19.2837 3.73999 19.2837 5.41999C19.2837 5.69999 19.4237 6.11999 19.4237 6.25999C19.4237 6.39999 19.2837 6.53999 19.1437 6.53999C17.6037 6.53999 17.4637 3.17999 11.3037 3.17999C5.42371 3.17999 0.803711 8.07999 0.803711 13.96V38.74C0.803711 39.44 1.36371 40 2.06371 40H15.9237C16.6237 40 17.1837 40.56 17.1837 41.26V66.46C17.1837 67.16 16.6237 67.72 15.9237 67.72H2.06371C1.36371 67.72 0.803711 68.28 0.803711 68.98V93.76C0.803711 99.64 5.42371 104.54 11.3037 104.54C17.4637 104.54 17.6037 101.18 19.1437 101.18C19.2837 101.18 19.4237 101.32 19.4237 101.46C19.4237 101.6 19.2837 102.02 19.2837 102.3C19.2837 103.98 20.5437 105.24 22.2237 105.24C23.9037 105.24 25.1637 103.98 25.1637 102.3C25.1637 102.02 25.0237 101.6 25.0237 101.46C25.0237 101.32 25.1637 101.18 25.3037 101.18C26.5637 101.18 28.2437 106.22 45.3237 106.22C75.9837 106.22 84.2437 89.42 84.6637 72.76V34.96C84.2437 18.3 75.9837 1.49999 45.3237 1.49999ZM27.2637 66.46V41.26C27.2637 40.56 27.8237 40 28.5237 40H65.7637C70.6637 40 74.5837 43.92 74.5837 48.82V58.9C74.5837 63.8 70.6637 67.72 65.7637 67.72H28.5237C27.8237 67.72 27.2637 67.16 27.2637 66.46Z" fill="#FF1C31"/>
<path d="M119.168 40H158.508C162.008 40 164.808 42.38 164.808 45.88C164.808 46.58 165.368 47.14 166.068 47.14H173.348C174.048 47.14 174.608 46.58 174.608 45.88V22.5C174.608 10.32 164.528 0.659994 152.348 0.659994C139.748 0.659994 137.228 7.09999 136.108 7.09999C135.968 7.09999 135.828 6.95999 135.828 6.81999C135.828 6.67999 135.968 6.25999 135.968 5.97999C135.968 4.29999 134.708 3.03999 133.028 3.03999C131.348 3.03999 130.088 4.29999 130.088 5.97999C130.088 6.25999 130.228 6.67999 130.228 6.81999C130.228 6.95999 130.088 7.09999 129.948 7.09999C128.828 7.09999 126.168 0.659994 113.708 0.659994C101.528 0.659994 91.4482 10.32 91.4482 22.5V38.74C91.4482 39.44 92.0082 40 92.7082 40H106.568C107.268 40 107.828 40.56 107.828 41.26V66.46C107.828 67.16 107.268 67.72 106.568 67.72H92.7082C92.0082 67.72 91.4482 68.28 91.4482 68.98V85.08C91.4482 97.26 101.528 106.92 113.708 106.92C126.168 106.92 128.828 100.48 129.948 100.48C130.088 100.48 130.228 100.62 130.228 100.76C130.228 100.9 130.088 101.32 130.088 101.6C130.088 103.28 131.348 104.54 133.028 104.54C134.708 104.54 135.968 103.28 135.968 101.6C135.968 101.32 135.828 100.9 135.828 100.76C135.828 100.62 135.968 100.48 136.108 100.48C137.228 100.48 139.748 106.92 152.348 106.92C164.528 106.92 174.608 97.26 174.608 85.08V61.84C174.608 61.14 174.048 60.58 173.348 60.58H166.068C165.368 60.58 164.808 61.14 164.808 61.84C164.808 65.34 162.008 67.72 158.508 67.72H119.168C118.468 67.72 117.908 67.16 117.908 66.46V58.9C117.908 58.2 118.468 57.64 119.168 57.64H130.928C131.628 57.64 132.188 58.2 132.188 58.9V60.16C132.188 60.86 132.748 61.42 133.448 61.42H152.348C153.048 61.42 153.608 60.86 153.608 60.16V47.56C153.608 46.86 153.048 46.3 152.348 46.3H133.448C132.748 46.3 132.188 46.86 132.188 47.56V48.82C132.188 49.52 131.628 50.08 130.928 50.08H119.168C118.468 50.08 117.908 49.52 117.908 48.82V41.26C117.908 40.56 118.468 40 119.168 40Z" fill="#FF1C31"/>
<path d="M249.586 71.5C249.586 37.48 201.706 58.9 201.706 43.78C201.706 41.68 203.806 40 205.906 40H229.986C233.486 40 236.286 42.38 236.286 45.88C236.286 46.58 236.846 47.14 237.546 47.14H244.826C245.526 47.14 246.086 46.58 246.086 45.88V23.76C246.086 11.86 238.946 2.19999 227.046 2.19999C222.006 2.19999 218.086 4.29999 217.526 4.29999C217.386 4.29999 217.246 4.15999 217.246 4.01999C217.246 3.87999 217.386 3.45999 217.386 3.17999C217.386 1.49999 216.126 0.23999 214.446 0.23999C212.766 0.23999 211.506 1.49999 211.506 3.17999C211.506 3.45999 211.646 3.87999 211.646 4.01999C211.646 4.15999 211.506 4.29999 211.366 4.29999C210.806 4.29999 206.886 2.19999 201.846 2.19999C189.946 2.19999 182.806 11.86 182.806 23.76V36.22C182.806 70.24 230.686 48.82 230.686 63.94C230.686 66.04 229.006 67.72 226.906 67.72H197.646C194.146 67.72 191.346 65.34 191.346 61.84C191.346 61.14 190.786 60.58 190.086 60.58H182.806C182.106 60.58 181.546 61.14 181.546 61.84V83.96C181.546 95.86 191.066 105.52 202.966 105.52C208.006 105.52 211.926 103.42 212.486 103.42C212.626 103.42 212.766 103.56 212.766 103.7C212.766 103.84 212.626 104.26 212.626 104.54C212.626 106.22 213.886 107.48 215.566 107.48C217.246 107.48 218.506 106.22 218.506 104.54C218.506 104.26 218.366 103.84 218.366 103.7C218.366 103.56 218.506 103.42 218.646 103.42C219.206 103.42 223.126 105.52 228.166 105.52C240.066 105.52 249.586 95.86 249.586 83.96V71.5Z" fill="#FF1C31"/>
<path d="M281.971 41.26C281.971 40.56 282.531 40 283.231 40H297.091C297.791 40 298.351 39.44 298.351 38.74V13.96C298.351 7.93999 293.731 3.17999 287.851 3.17999C281.551 3.17999 281.551 6.53999 280.011 6.53999C279.871 6.53999 279.731 6.39999 279.731 6.25999C279.731 6.11999 279.871 5.69999 279.871 5.41999C279.871 3.73999 278.611 2.47999 276.931 2.47999C275.251 2.47999 273.991 3.73999 273.991 5.41999C273.991 5.69999 274.131 6.11999 274.131 6.25999C274.131 6.39999 273.991 6.53999 273.851 6.53999C272.311 6.53999 272.171 3.17999 266.011 3.17999C260.131 3.17999 255.511 7.93999 255.511 13.96V38.74C255.511 39.44 256.071 40 256.771 40H270.631C271.331 40 271.891 40.56 271.891 41.26V66.46C271.891 67.16 271.331 67.72 270.631 67.72H256.771C256.071 67.72 255.511 68.28 255.511 68.98V93.9C255.511 99.78 260.131 104.54 266.011 104.54C272.171 104.54 272.311 101.18 273.851 101.18C273.991 101.18 274.131 101.32 274.131 101.46C274.131 101.6 273.991 102.02 273.991 102.3C273.991 103.98 275.251 105.24 276.931 105.24C278.611 105.24 279.871 103.98 279.871 102.3C279.871 102.02 279.731 101.6 279.731 101.46C279.731 101.32 279.871 101.18 280.011 101.18C281.551 101.18 281.551 104.54 287.851 104.54C293.731 104.54 298.351 99.78 298.351 93.9V68.98C298.351 68.28 297.791 67.72 297.091 67.72H283.231C282.531 67.72 281.971 67.16 281.971 66.46V41.26Z" fill="#FF1C31"/>
<path d="M325.443 39.72H357.223C360.723 39.72 363.523 42.1 363.523 45.6C363.523 46.3 364.083 46.86 364.783 46.86H372.063C372.763 46.86 373.323 46.3 373.323 45.6V23.76C373.323 11.86 363.663 2.19999 351.763 2.19999C346.723 2.19999 342.803 4.29999 342.243 4.29999C342.103 4.29999 341.963 4.15999 341.963 4.01999C341.963 3.87999 342.103 3.45999 342.103 3.17999C342.103 1.49999 340.843 0.23999 339.163 0.23999C337.483 0.23999 336.223 1.49999 336.223 3.17999C336.223 3.45999 336.363 3.87999 336.363 4.01999C336.363 4.15999 336.223 4.29999 336.083 4.29999C335.523 4.29999 331.603 2.19999 326.563 2.19999C314.663 2.19999 305.003 11.86 305.003 23.76V83.96C305.003 95.86 314.663 105.52 326.563 105.52C331.603 105.52 335.523 103.42 336.083 103.42C336.223 103.42 336.363 103.56 336.363 103.7C336.363 103.84 336.223 104.26 336.223 104.54C336.223 106.22 337.483 107.48 339.163 107.48C340.843 107.48 342.103 106.22 342.103 104.54C342.103 104.26 341.963 103.84 341.963 103.7C341.963 103.56 342.103 103.42 342.243 103.42C342.803 103.42 346.723 105.52 351.763 105.52C363.663 105.52 373.323 95.86 373.323 83.96V52.74C373.323 52.04 372.763 51.48 372.063 51.48H348.403C347.703 51.48 347.143 52.04 347.143 52.74V57.78C347.143 58.48 347.703 59.04 348.403 59.04H362.263C362.963 59.04 363.523 59.6 363.523 60.3V62.12C363.523 65.62 360.723 68 357.223 68H325.443C319.283 68 314.243 62.96 314.243 56.8V50.92C314.243 44.76 319.283 39.72 325.443 39.72Z" fill="#FF1C31"/>
<path d="M465.322 3.17999C459.022 3.17999 459.022 6.53999 457.482 6.53999C457.342 6.53999 457.202 6.39999 457.202 6.25999C457.202 6.11999 457.342 5.69999 457.342 5.41999C457.342 3.73999 456.082 2.47999 454.402 2.47999C452.722 2.47999 451.462 3.73999 451.462 5.41999C451.462 5.69999 451.602 6.11999 451.602 6.25999C451.602 6.39999 451.462 6.53999 451.322 6.53999C449.782 6.53999 449.642 3.17999 443.482 3.17999C437.602 3.17999 432.982 7.93999 432.982 13.96V38.74C432.982 39.44 433.542 40 434.242 40H448.102C448.802 40 449.362 40.56 449.362 41.26V66.46C449.362 67.16 448.802 67.72 448.102 67.72H440.262C439.142 67.72 438.582 67.16 438.582 67.16L420.662 41.96C420.662 41.96 420.102 41.12 420.102 40.56C420.102 40.28 420.242 40 420.942 40H421.642C422.342 40 422.902 39.44 422.902 38.74V13.96C422.902 7.93999 418.282 3.17999 412.402 3.17999C406.102 3.17999 406.102 6.53999 404.562 6.53999C404.422 6.53999 404.282 6.39999 404.282 6.25999C404.282 6.11999 404.422 5.69999 404.422 5.41999C404.422 3.73999 403.162 2.47999 401.482 2.47999C399.802 2.47999 398.542 3.73999 398.542 5.41999C398.542 5.69999 398.682 6.11999 398.682 6.25999C398.682 6.39999 398.542 6.53999 398.402 6.53999C396.862 6.53999 396.722 3.17999 390.562 3.17999C384.682 3.17999 380.062 7.93999 380.062 13.96V38.74C380.062 39.44 380.622 40 381.322 40H395.182C395.882 40 396.442 40.56 396.442 41.26V66.46C396.442 67.16 395.882 67.72 395.182 67.72H381.322C380.622 67.72 380.062 68.28 380.062 68.98V93.9C380.062 99.78 384.682 104.54 390.562 104.54C396.722 104.54 396.862 101.18 398.402 101.18C398.542 101.18 398.682 101.32 398.682 101.46C398.682 101.6 398.542 102.02 398.542 102.3C398.542 103.98 399.802 105.24 401.482 105.24C403.162 105.24 404.422 103.98 404.422 102.3C404.422 102.02 404.282 101.6 404.282 101.46C404.282 101.32 404.422 101.18 404.562 101.18C406.102 101.18 406.102 104.54 412.402 104.54C418.282 104.54 422.902 99.78 422.902 93.9V68.98C422.902 68.28 422.342 67.72 421.642 67.72H407.782C407.082 67.72 406.522 67.16 406.522 66.46V42.1C406.522 41.54 406.802 41.26 407.082 41.26C407.782 41.26 408.482 42.38 408.482 42.38L450.342 100.9C451.182 102.16 452.722 103 454.402 103C457.202 103 459.442 100.76 459.442 97.96V41.26C459.442 40.56 460.002 40 460.702 40H474.562C475.262 40 475.822 39.44 475.822 38.74V13.96C475.822 7.93999 471.202 3.17999 465.322 3.17999Z" fill="#FF1C31"/>
</svg>

<svg xmlns="http://www.w3.org/2000/svg" fill="none" viewBox="0 0 476 108"><path fill="#FF1C31" d="M45.324 1.5c-17.08 0-18.76 5.04-20.02 5.04-.14 0-.28-.14-.28-.28s.14-.56.14-.84c0-1.68-1.26-2.94-2.94-2.94s-2.94 1.26-2.94 2.94c0 .28.14.7.14.84s-.14.28-.28.28c-1.54 0-1.68-3.36-7.84-3.36-5.88 0-10.5 4.9-10.5 10.78v24.78c0 .7.56 1.26 1.26 1.26h13.86c.7 0 1.26.56 1.26 1.26v25.2c0 .7-.56 1.26-1.26 1.26H2.064c-.7 0-1.26.56-1.26 1.26v24.78c0 5.88 4.62 10.78 10.5 10.78 6.16 0 6.3-3.36 7.84-3.36.14 0 .28.14.28.28s-.14.56-.14.84c0 1.68 1.26 2.94 2.94 2.94s2.94-1.26 2.94-2.94c0-.28-.14-.7-.14-.84s.14-.28.28-.28c1.26 0 2.94 5.04 20.02 5.04 30.66 0 38.92-16.8 39.34-33.46v-37.8c-.42-16.66-8.68-33.46-39.34-33.46zm-18.06 64.96v-25.2c0-.7.56-1.26 1.26-1.26h37.24c4.9 0 8.82 3.92 8.82 8.82V58.9c0 4.9-3.92 8.82-8.82 8.82h-37.24c-.7 0-1.26-.56-1.26-1.26zM119.168 40h39.34c3.5 0 6.3 2.38 6.3 5.88 0 .7.56 1.26 1.26 1.26h7.28c.7 0 1.26-.56 1.26-1.26V22.5c0-12.18-10.08-21.84-22.26-21.84-12.6 0-15.12 6.44-16.24 6.44-.14 0-.28-.14-.28-.28s.14-.56.14-.84c0-1.68-1.26-2.94-2.94-2.94s-2.94 1.26-2.94 2.94c0 .28.14.7.14.84s-.14.28-.28.28c-1.12 0-3.78-6.44-16.24-6.44-12.18 0-22.26 9.66-22.26 21.84v16.24c0 .7.56 1.26 1.26 1.26h13.86c.7 0 1.26.56 1.26 1.26v25.2c0 .7-.56 1.26-1.26 1.26h-13.86c-.7 0-1.26.56-1.26 1.26v16.1c0 12.18 10.08 21.84 22.26 21.84 12.46 0 15.12-6.44 16.24-6.44.14 0 .28.14.28.28s-.14.56-.14.84c0 1.68 1.26 2.94 2.94 2.94s2.94-1.26 2.94-2.94c0-.28-.14-.7-.14-.84s.14-.28.28-.28c1.12 0 3.64 6.44 16.24 6.44 12.18 0 22.26-9.66 22.26-21.84V61.84c0-.7-.56-1.26-1.26-1.26h-7.28c-.7 0-1.26.56-1.26 1.26 0 3.5-2.8 5.88-6.3 5.88h-39.34c-.7 0-1.26-.56-1.26-1.26V58.9c0-.7.56-1.26 1.26-1.26h11.76c.7 0 1.26.56 1.26 1.26v1.26c0 .7.56 1.26 1.26 1.26h18.9c.7 0 1.26-.56 1.26-1.26v-12.6c0-.7-.56-1.26-1.26-1.26h-18.9c-.7 0-1.26.56-1.26 1.26v1.26c0 .7-.56 1.26-1.26 1.26h-11.76c-.7 0-1.26-.56-1.26-1.26v-7.56c0-.7.56-1.26 1.26-1.26zM249.586 71.5c0-34.02-47.88-12.6-47.88-27.72 0-2.1 2.1-3.78 4.2-3.78h24.08c3.5 0 6.3 2.38 6.3 5.88 0 .7.56 1.26 1.26 1.26h7.28c.7 0 1.26-.56 1.26-1.26V23.76c0-11.9-7.14-21.56-19.04-21.56-5.04 0-8.96 2.1-9.52 2.1-.14 0-.28-.14-.28-.28s.14-.56.14-.84c0-1.68-1.26-2.94-2.94-2.94s-2.94 1.26-2.94 2.94c0 .28.14.7.14.84s-.14.28-.28.28c-.56 0-4.48-2.1-9.52-2.1-11.9 0-19.04 9.66-19.04 21.56v12.46c0 34.02 47.88 12.6 47.88 27.72 0 2.1-1.68 3.78-3.78 3.78h-29.26c-3.5 0-6.3-2.38-6.3-5.88 0-.7-.56-1.26-1.26-1.26h-7.28c-.7 0-1.26.56-1.26 1.26v22.12c0 11.9 9.52 21.56 21.42 21.56 5.04 0 8.96-2.1 9.52-2.1.14 0 .28.14.28.28s-.14.56-.14.84c0 1.68 1.26 2.94 2.94 2.94s2.94-1.26 2.94-2.94c0-.28-.14-.7-.14-.84s.14-.28.28-.28c.56 0 4.48 2.1 9.52 2.1 11.9 0 21.42-9.66 21.42-21.56V71.5zM281.971 41.26c0-.7.56-1.26 1.26-1.26h13.86c.7 0 1.26-.56 1.26-1.26V13.96c0-6.02-4.62-10.78-10.5-10.78-6.3 0-6.3 3.36-7.84 3.36-.14 0-.28-.14-.28-.28s.14-.56.14-.84c0-1.68-1.26-2.94-2.94-2.94s-2.94 1.26-2.94 2.94c0 .28.14.7.14.84s-.14.28-.28.28c-1.54 0-1.68-3.36-7.84-3.36-5.88 0-10.5 4.76-10.5 10.78v24.78c0 .7.56 1.26 1.26 1.26h13.86c.7 0 1.26.56 1.26 1.26v25.2c0 .7-.56 1.26-1.26 1.26h-13.86c-.7 0-1.26.56-1.26 1.26V93.9c0 5.88 4.62 10.64 10.5 10.64 6.16 0 6.3-3.36 7.84-3.36.14 0 .28.14.28.28s-.14.56-.14.84c0 1.68 1.26 2.94 2.94 2.94s2.94-1.26 2.94-2.94c0-.28-.14-.7-.14-.84s.14-.28.28-.28c1.54 0 1.54 3.36 7.84 3.36 5.88 0 10.5-4.76 10.5-10.64V68.98c0-.7-.56-1.26-1.26-1.26h-13.86c-.7 0-1.26-.56-1.26-1.26v-25.2zM325.443 39.72h31.78c3.5 0 6.3 2.38 6.3 5.88 0 .7.56 1.26 1.26 1.26h7.28c.7 0 1.26-.56 1.26-1.26V23.76c0-11.9-9.66-21.56-21.56-21.56-5.04 0-8.96 2.1-9.52 2.1-.14 0-.28-.14-.28-.28s.14-.56.14-.84c0-1.68-1.26-2.94-2.94-2.94s-2.94 1.26-2.94 2.94c0 .28.14.7.14.84s-.14.28-.28.28c-.56 0-4.48-2.1-9.52-2.1-11.9 0-21.56 9.66-21.56 21.56v60.2c0 11.9 9.66 21.56 21.56 21.56 5.04 0 8.96-2.1 9.52-2.1.14 0 .28.14.28.28s-.14.56-.14.84c0 1.68 1.26 2.94 2.94 2.94s2.94-1.26 2.94-2.94c0-.28-.14-.7-.14-.84s.14-.28.28-.28c.56 0 4.48 2.1 9.52 2.1 11.9 0 21.56-9.66 21.56-21.56V52.74c0-.7-.56-1.26-1.26-1.26h-23.66c-.7 0-1.26.56-1.26 1.26v5.04c0 .7.56 1.26 1.26 1.26h13.86c.7 0 1.26.56 1.26 1.26v1.82c0 3.5-2.8 5.88-6.3 5.88h-31.78c-6.16 0-11.2-5.04-11.2-11.2v-5.88c0-6.16 5.04-11.2 11.2-11.2zM465.322 3.18c-6.3 0-6.3 3.36-7.84 3.36-.14 0-.28-.14-.28-.28s.14-.56.14-.84c0-1.68-1.26-2.94-2.94-2.94s-2.94 1.26-2.94 2.94c0 .28.14.7.14.84s-.14.28-.28.28c-1.54 0-1.68-3.36-7.84-3.36-5.88 0-10.5 4.76-10.5 10.78v24.78c0 .7.56 1.26 1.26 1.26h13.86c.7 0 1.26.56 1.26 1.26v25.2c0 .7-.56 1.26-1.26 1.26h-7.84c-1.12 0-1.68-.56-1.68-.56l-17.92-25.2s-.56-.84-.56-1.4c0-.28.14-.56.84-.56h.7c.7 0 1.26-.56 1.26-1.26V13.96c0-6.02-4.62-10.78-10.5-10.78-6.3 0-6.3 3.36-7.84 3.36-.14 0-.28-.14-.28-.28s.14-.56.14-.84c0-1.68-1.26-2.94-2.94-2.94s-2.94 1.26-2.94 2.94c0 .28.14.7.14.84s-.14.28-.28.28c-1.54 0-1.68-3.36-7.84-3.36-5.88 0-10.5 4.76-10.5 10.78v24.78c0 .7.56 1.26 1.26 1.26h13.86c.7 0 1.26.56 1.26 1.26v25.2c0 .7-.56 1.26-1.26 1.26h-13.86c-.7 0-1.26.56-1.26 1.26V93.9c0 5.88 4.62 10.64 10.5 10.64 6.16 0 6.3-3.36 7.84-3.36.14 0 .28.14.28.28s-.14.56-.14.84c0 1.68 1.26 2.94 2.94 2.94s2.94-1.26 2.94-2.94c0-.28-.14-.7-.14-.84s.14-.28.28-.28c1.54 0 1.54 3.36 7.84 3.36 5.88 0 10.5-4.76 10.5-10.64V68.98c0-.7-.56-1.26-1.26-1.26h-13.86c-.7 0-1.26-.56-1.26-1.26V42.1c0-.56.28-.84.56-.84.7 0 1.4 1.12 1.4 1.12l41.86 58.52c.84 1.26 2.38 2.1 4.06 2.1 2.8 0 5.04-2.24 5.04-5.04v-56.7c0-.7.56-1.26 1.26-1.26h13.86c.7 0 1.26-.56 1.26-1.26V13.96c0-6.02-4.62-10.78-10.5-10.78z"/></svg>
